src/img/global/Bakin.svg

<?xml version="1.0" encoding="UTF-8"?>
<svg width="67px" height="67px" viewBox="0 0 67 67" version="1.1" xmlns="http://www.w3.org/2000/svg" xmlns:xlink="http://www.w3.org/1999/xlink">
    <title>Logos / Bakin</title>
    <g id="Symbols" stroke="none" stroke-width="1" fill="none" fill-rule="evenodd">
        <g id="Main-/-Footer" transform="translate(-1353.000000, -20.000000)" fill="#CDE1FF">
            <g id="Logos-/-Bakin" transform="translate(1353.170300, 20.000000)">
                <g id="Group-6" transform="translate(0.000000, 0.000000)">
                    <path d="M5.8534,26.8218 C5.0814,27.2078 4.3094,27.2718 3.4734,27.0148 C2.6374,26.7578 1.9944,26.2428 1.6074,25.5348 C1.2224,24.8278 1.1584,23.9918 1.4154,23.1548 C1.7364,22.1268 2.5084,21.3548 3.5384,21.0968 L3.7944,22.2548 C3.2164,22.3838 2.7014,22.8338 2.5084,23.4768 C2.3154,24.0558 2.3794,24.5068 2.6374,24.9568 C2.8944,25.4068 3.2804,25.7278 3.8594,25.8568 C4.3744,26.0498 4.8884,25.9858 5.3384,25.7928 C5.7894,25.5348 6.1104,25.1498 6.2394,24.6348 C6.4324,23.9918 6.3034,23.3488 5.8534,22.8978 L6.6894,22.1268 C7.3324,22.8338 7.5904,23.9268 7.2684,24.9568 C7.0754,25.7928 6.5614,26.4358 5.8534,26.8218" id="Fill-1"></path>
                    <polygon id="Fill-3" points="5.3383 14.9224 6.3033 15.5014 5.5313 16.9164 9.7133 19.2964 9.1983 20.2614 4.9533 17.8804 4.1813 19.2964 3.2163 18.7174"></polygon>
                    <path d="M9.0052,10.3555 L9.7762,9.4555 L11.8352,13.6355 C12.4142,14.7295 12.2852,15.6945 11.5132,16.4655 L10.7412,15.8225 C11.1922,15.3725 11.2562,14.9865 11.0632,14.4075 L6.6252,13.1215 L7.3972,12.2205 L10.4202,13.1215 L9.0052,10.3555 Z" id="Fill-5"></path>
                    <path d="M13.6361,6.3032 C14.2791,5.8532 15.0511,5.6602 15.8231,5.7882 C16.5941,5.9172 17.2381,6.3672 17.7531,7.0112 C18.2671,7.7182 18.4601,8.4262 18.3321,9.1982 C18.2031,9.9702 17.8171,10.6132 17.1741,11.0632 L15.2441,12.5422 L11.7711,7.7182 L13.6361,6.3032 Z M16.4661,10.2272 C16.9161,9.9052 17.1091,9.5192 17.1741,9.0692 C17.2381,8.6182 17.1091,8.1692 16.7881,7.7182 C16.4661,7.2682 16.0801,7.0112 15.6301,6.9472 C15.1791,6.8822 14.7301,6.9472 14.2791,7.2682 L13.3151,7.9112 L15.5011,10.9342 L16.4661,10.2272 Z" id="Fill-7"></path>
                    <polygon id="Fill-9" points="23.9921 7.4614 22.6411 4.1164 21.6761 8.4254 20.8401 8.7474 18.5891 3.2154 19.6821 2.7654 21.0331 6.1104 21.9981 1.8004 22.8341 1.4794 25.0851 7.0104"></polygon>
                    <path d="M29.9095,0 L30.8735,5.853 L29.7165,6.11 L29.3945,4.052 L28.7515,4.181 L27.7225,6.432 L26.4355,6.625 L27.5295,4.245 C26.7575,4.117 26.1145,3.473 25.9855,2.701 C25.9215,2.187 25.9855,1.672 26.3075,1.222 C26.6295,0.772 27.0785,0.515 27.5945,0.45 L29.9095,0 Z M29.2015,3.023 L28.9445,1.286 L27.7225,1.479 C27.2715,1.543 27.0145,1.994 27.0785,2.444 C27.1435,2.894 27.5945,3.28 28.0435,3.216 L29.2015,3.023 Z" id="Fill-11"></path>
                    <path d="M38.4637,2.6372 C39.0427,2.7012 39.4927,2.9592 39.8147,3.3452 C40.1367,3.7302 40.2657,4.1802 40.1367,4.7602 C40.0717,5.2742 39.8147,5.7242 39.3637,5.9822 C38.9787,6.2392 38.4637,6.3672 37.8847,6.2392 L35.6337,5.8532 L36.5347,0.0002 L40.2007,0.5782 L40.0077,1.6722 L37.4987,1.2862 L37.3067,2.3802 L38.4637,2.6372 Z M38.0137,5.1452 C38.4637,5.2102 38.8507,5.0172 38.9137,4.5022 C38.9787,4.0522 38.7217,3.7302 38.2067,3.6662 L37.1777,3.5372 L36.9207,5.0172 L38.0137,5.1452 Z" id="Fill-13"></path>
                    <path d="M44.5751,8.2974 L44.6381,7.1394 L42.4521,6.3034 L41.7451,7.2034 L40.5871,6.7544 L44.7031,1.9294 L46.0541,2.4444 L45.8611,8.7474 L44.5751,8.2974 Z M43.2231,5.4024 L44.7671,5.9824 L44.8961,3.4084 L43.2231,5.4024 Z" id="Fill-15"></path>
                    <polygon id="Fill-17" points="50.6854 12.0278 49.5914 11.2558 49.3984 7.7828 47.8544 10.0978 46.8904 9.4548 50.2354 4.5018 51.2004 5.1458 49.7204 7.3328 52.8724 6.3028 53.9654 7.0748 50.4924 8.2328"></polygon>
                    <polygon id="Fill-19" points="53.9657 15.3726 56.6027 12.8646 52.2287 13.5076 51.6507 12.8646 56.0237 8.8116 56.7957 9.6476 54.1577 12.1566 58.5317 11.5136 59.1117 12.1566 54.7367 16.2086"></polygon>
                    <polygon id="Fill-21" points="62.6483 17.5596 63.2273 18.5886 58.0823 21.5476 57.5023 20.5176 59.6263 19.2966 58.5323 17.3666 56.4093 18.5886 55.8313 17.5596 60.9763 14.6016 61.5553 15.6296 59.4973 16.7876 60.5903 18.7176"></polygon>
                    <path d="M59.8827,26.8218 L60.7837,26.1788 L60.0757,23.9268 L58.9177,23.8638 L58.5317,22.6408 L64.8357,22.8978 L65.2217,24.3128 L60.1407,28.0438 L59.8827,26.8218 Z M61.2977,23.9918 L61.7477,25.5348 L63.8707,24.0558 L61.2977,23.9918 Z" id="Fill-23"></path>
                    <path d="M6.368,38.7212 C6.561,39.4932 6.368,40.2652 5.917,40.9092 C5.468,41.5512 4.824,42.0012 3.988,42.1302 C3.152,42.3242 2.444,42.1952 1.737,41.7442 C1.093,41.3582 0.643,40.7152 0.451,39.9432 L1.00808251e-13,37.6272 L5.853,36.4062 L6.368,38.7212 Z M1.608,39.6862 C1.737,40.2002 1.994,40.5862 2.38,40.8442 C2.766,41.1012 3.281,41.1652 3.795,41.0362 C4.309,40.9092 4.76,40.6512 5.017,40.2652 C5.274,39.8782 5.403,39.4292 5.274,38.9142 L5.017,37.7562 L1.415,38.5282 L1.608,39.6862 Z" id="Fill-25"></path>
                    <polygon id="Fill-27" points="3.2162 47.9839 6.4962 46.5049 2.1222 45.6689 1.7372 44.8319 7.1392 42.3869 7.5902 43.4809 4.2452 44.9609 8.6192 45.7959 9.0052 46.6319 3.6022 49.0769"></polygon>
                    <path d="M8.619,53.3862 C8.169,53.7082 7.719,53.7722 7.204,53.6442 C6.689,53.5152 6.239,53.1942 5.917,52.6792 C5.274,51.7782 5.21,50.8782 5.789,50.0412 L6.818,50.5562 C6.432,51.0062 6.432,51.5212 6.818,52.0352 C7.204,52.5502 7.654,52.6792 8.04,52.4212 C8.426,52.1642 8.426,51.7142 8.104,51.1992 L7.654,50.6202 L8.491,50.0412 L8.812,50.4912 C9.134,50.9422 9.584,51.0712 9.906,50.8142 C10.291,50.5562 10.291,50.1702 10.034,49.7202 C9.713,49.3342 9.327,49.1412 8.812,49.2702 L8.683,48.1122 C9.584,47.9842 10.356,48.2402 10.934,49.0762 C11.256,49.5272 11.449,50.0412 11.385,50.5562 C11.321,51.0712 11.128,51.4562 10.677,51.7142 C10.227,52.0352 9.777,52.1002 9.262,51.9072 C9.391,52.4862 9.134,53.0002 8.619,53.3862" id="Fill-29"></path>
                    <path d="M11.3846,58.5962 L11.8356,57.5672 L10.0986,55.9592 L9.1336,56.4742 L8.2326,55.5732 L13.8286,52.6792 L14.8586,53.7082 L12.2846,59.4962 L11.3846,58.5962 Z M11.1916,55.3802 L12.3496,56.4742 L13.4436,54.1592 L11.1916,55.3802 Z" id="Fill-31"></path>
                    <polygon id="Fill-33" points="16.8524 62.3911 18.7174 59.3041 14.6654 61.1051 13.8934 60.6551 16.9804 55.5741 18.0094 56.1521 16.1444 59.2401 20.1964 57.4391 20.9684 57.8891 17.8814 62.9701"></polygon>
                    <polygon id="Fill-35" points="25.2782 59.561 26.3712 59.947 24.3782 65.543 23.2842 65.157 24.1202 62.841 22.0622 62.134 21.2262 64.45 20.1322 64.064 22.1262 58.467 23.2202 58.854 22.4482 61.105 24.5072 61.812"></polygon>
                    <path d="M34.0258,60.7192 C34.8618,60.7192 35.5058,60.9762 36.0838,61.4902 C36.6628,62.0702 36.9208,62.7122 36.9838,63.5492 C37.0488,64.3852 36.7918,65.0932 36.2128,65.6722 C35.6978,66.2502 34.9908,66.5722 34.2188,66.5722 L31.8388,66.6362 L31.6468,60.7192 L34.0258,60.7192 Z M34.1548,65.5432 C34.6698,65.5432 35.0548,65.3502 35.3768,64.9642 C35.6978,64.5782 35.8268,64.1282 35.8268,63.6142 C35.8268,63.0342 35.6338,62.6492 35.3128,62.3262 C34.9908,62.0052 34.5408,61.8122 34.0258,61.8762 L32.8038,61.9412 L32.9328,65.6722 L34.1548,65.5432 Z" id="Fill-37"></path>
                    <path d="M38.2069,65.2857 C38.9139,65.2217 39.1719,64.8357 38.9139,63.7417 L38.0779,60.3337 L42.0019,59.3687 L43.4169,65.1567 L42.2589,65.4147 L41.1019,60.7197 L39.4289,61.1047 L40.0079,63.4207 C40.2649,64.4497 40.1369,65.1567 39.8139,65.6077 C39.4929,66.0567 39.0429,66.2507 38.4639,66.3147 L38.2069,65.2857 Z" id="Fill-39"></path>
                    <path d="M47.0184,57.1167 L49.5914,62.5197 L48.5624,63.0347 L47.6624,61.1697 L47.0824,61.4267 L46.7614,63.8707 L45.5394,64.4497 L45.9254,61.8767 C45.1534,61.9407 44.3174,61.5547 43.9964,60.7837 C43.7384,60.2687 43.7384,59.7547 43.9314,59.3047 C44.1234,58.8537 44.4464,58.4027 44.9594,58.2107 L47.0184,57.1167 Z M47.1474,60.2047 L46.3754,58.5957 L45.2824,59.1107 C44.8964,59.3047 44.7034,59.8187 44.9594,60.2687 C45.1534,60.7197 45.6674,60.9117 46.0534,60.7197 L47.1474,60.2047 Z" id="Fill-41"></path>
                    <path d="M53.0009,52.3569 C53.5789,51.7779 54.2229,51.4569 55.0589,51.4569 C55.8309,51.4569 56.5379,51.7139 57.1819,52.3569 C57.7609,52.9359 58.0819,53.6439 58.1469,54.4159 C58.2109,55.1869 57.8889,55.8949 57.3749,56.4739 L55.7669,58.2109 L51.4569,54.0939 L53.0009,52.3569 Z M56.4739,55.7019 C56.8599,55.3159 56.9879,54.9299 56.9879,54.4159 C56.9879,53.9649 56.7309,53.5149 56.3459,53.1289 C55.9589,52.7429 55.5089,52.5499 55.0589,52.5499 C54.6079,52.5499 54.1579,52.7429 53.8369,53.1289 L53.0009,53.9649 L55.7019,56.5389 L56.4739,55.7019 Z" id="Fill-43"></path>
                    <polygon id="Fill-45" points="60.205 51.0064 61.556 48.8844 62.52 49.4624 60.526 52.5504 55.509 49.3344 57.438 46.2464 58.403 46.8254 57.053 48.8844 58.146 49.5914 59.368 47.6614 60.333 48.2404 59.111 50.1704"></polygon>
                    <path d="M62.327,47.6616 C62.713,47.0176 62.52,46.5686 61.491,46.1826 L58.211,44.8956 L59.69,41.1006 L65.222,43.2876 L64.771,44.3816 L60.269,42.5806 L59.626,44.1886 L61.812,45.0246 C62.777,45.4106 63.356,45.9256 63.485,46.4396 C63.613,46.9546 63.549,47.4696 63.292,47.9836 L62.327,47.6616 Z" id="Fill-47"></path>
                    <path d="M66.5077,37.1128 L65.4147,37.3058 L65.0287,39.6218 L66.0577,40.1358 L65.8647,41.3578 L60.3327,38.3358 L60.5907,36.9208 L66.8297,35.8268 L66.5077,37.1128 Z M63.9997,39.1068 L64.2567,37.4998 L61.7477,37.8848 L63.9997,39.1068 Z" id="Fill-49"></path>
                    <path d="M3.6664,31.0025 C3.6664,30.3985 3.1774,29.9095 2.5734,29.9095 C1.9684,29.9095 1.4794,30.3985 1.4794,31.0025 C1.4794,31.6065 1.9684,32.0955 2.5734,32.0955 C3.1774,32.0955 3.6664,31.6065 3.6664,31.0025" id="Fill-51"></path>
                    <path d="M64.7069,31.0669 C64.7069,30.4629 64.2179,29.9739 63.6129,29.9739 C63.0099,29.9739 62.5199,30.4629 62.5199,31.0669 C62.5199,31.6709 63.0099,32.1609 63.6129,32.1609 C64.2179,32.1609 64.7069,31.6709 64.7069,31.0669" id="Fill-53"></path>
                    <path d="M50.2352,40.8442 C49.1412,41.9372 47.5972,42.5802 45.9252,42.5802 L30.6162,42.5802 L29.2662,42.5802 L24.3782,42.5802 C20.9042,42.5802 14.4082,39.8152 14.4082,32.6112 C14.4082,25.7932 20.1322,22.6412 24.1852,22.6412 L28.1732,22.6412 C29.5882,22.6412 30.4882,23.6702 30.4882,24.9562 C30.4882,26.2422 29.4592,27.1432 28.1732,27.1432 L24.3782,27.1432 C22.8982,27.1432 19.2322,28.4942 19.2322,32.6752 C19.2322,36.8562 22.8982,38.0772 24.3782,38.0772 L29.2662,38.0772 L30.6162,38.0772 L45.6682,38.0772 C46.7612,38.0772 47.4052,37.2412 47.4052,36.2772 C47.4052,35.4412 46.8262,34.4762 45.6682,34.4762 L41.4872,34.4762 L35.5692,34.4762 C34.4112,34.4762 33.2542,33.3182 33.2542,32.1602 L33.2542,24.9562 C33.2542,23.7992 34.4122,22.6412 35.5692,22.6412 L43.7382,22.6412 C45.0242,22.6412 46.0532,23.5412 46.0532,24.8272 C46.0532,26.1142 45.0242,27.1432 43.7382,27.1432 L38.0782,27.1432 L38.0782,30.3592 L41.5512,30.3592 L45.9252,30.3592 C47.5972,30.3592 49.1412,31.0672 50.2352,32.1602 C51.3282,33.2542 52.0362,34.7972 52.0362,36.4702 C52.0362,38.2062 51.3282,39.7502 50.2352,40.8442" id="Fill-55"></path>
                </g>
            </g>
        </g>
    </g>
</svg>

<svg xmlns="http://www.w3.org/2000/svg" width="67" height="67"><g id="UI" fill="none" fill-rule="evenodd" stroke="none" stroke-width="1"><g id="Desktop-HD" fill="#8080FF" transform="translate(-1352 -6172)"><g id="Footer" transform="translate(20 6172)"><g id="Logos-/-Bakin" transform="translate(1332.17)"><g id="Group-6"><path id="Fill-1" d="M5.853 26.822c-.772.386-1.544.45-2.38.193-.836-.257-1.479-.772-1.866-1.48-.385-.707-.449-1.543-.192-2.38.321-1.028 1.093-1.8 2.123-2.058l.256 1.158a1.763 1.763 0 00-1.286 1.222c-.193.579-.129 1.03.13 1.48.256.45.642.77 1.221.9.515.193 1.03.129 1.48-.064.45-.258.771-.643.9-1.158.193-.643.064-1.286-.386-1.737l.836-.771c.643.707.901 1.8.58 2.83a2.805 2.805 0 01-1.416 1.865"/><path id="Fill-3" d="M5.338 14.922l.965.579-.772 1.415 4.182 2.38-.515.965-4.245-2.381-.772 1.416-.965-.579z"/><path id="Fill-5" d="M9.005 10.355l.771-.9 2.06 4.18c.578 1.095.45 2.06-.323 2.83l-.772-.643c.451-.45.515-.835.322-1.414L6.625 13.12l.772-.9 3.023.9-1.415-2.766z"/><path id="Fill-7" d="M13.636 6.303a2.953 2.953 0 012.187-.515c.771.13 1.415.58 1.93 1.223.514.707.707 1.415.58 2.187-.13.772-.516 1.415-1.159 1.865l-1.93 1.48-3.473-4.825 1.865-1.415zm2.83 3.924c.45-.322.643-.708.708-1.158.064-.45-.065-.9-.386-1.35-.322-.45-.708-.708-1.158-.772-.45-.065-.9 0-1.35.321l-.965.643 2.186 3.023.965-.707z"/><path id="Fill-9" d="M23.992 7.461l-1.351-3.345-.965 4.309-.836.322-2.251-5.532 1.093-.45 1.351 3.345.965-4.31.836-.321 2.251 5.531z"/><path id="Fill-11" d="M29.91 0l.963 5.853-1.157.257-.322-2.058-.642.129-1.03 2.251-1.287.193 1.095-2.38a1.917 1.917 0 01-1.545-1.544c-.063-.514 0-1.029.323-1.479.322-.45.77-.707 1.287-.772L29.91 0zm-.71 3.023l-.256-1.737-1.223.193c-.45.064-.707.515-.644.965.066.45.517.836.966.772l1.157-.193z"/><path id="Fill-13" d="M38.464 2.637a1.99 1.99 0 011.35.708c.323.385.452.835.323 1.415-.065.514-.322.964-.773 1.222-.385.257-.9.385-1.48.257l-2.25-.386.9-5.853 3.667.578-.193 1.094-2.51-.386-.191 1.094 1.157.257zm-.45 2.508c.45.065.837-.128.9-.643.065-.45-.192-.772-.707-.836l-1.03-.129-.256 1.48 1.093.128z"/><path id="Fill-15" d="M44.575 8.297l.063-1.158-2.186-.836-.707.9-1.158-.449 4.116-4.825 1.351.515-.193 6.303-1.286-.45zm-1.352-2.895l1.544.58.13-2.574-1.674 1.994z"/><path id="Fill-17" d="M50.685 12.028l-1.094-.772-.193-3.473-1.544 2.315-.964-.643 3.345-4.953.965.644-1.48 2.187 3.152-1.03 1.093.772-3.473 1.158z"/><path id="Fill-19" d="M53.966 15.373l2.637-2.508-4.374.643-.578-.643 4.373-4.053.772.836-2.638 2.509 4.374-.643.58.643-4.375 4.052z"/><path id="Fill-21" d="M62.648 17.56l.579 1.029-5.145 2.959-.58-1.03 2.124-1.221-1.094-1.93-2.123 1.222-.578-1.029 5.145-2.958.579 1.028-2.058 1.158 1.093 1.93z"/><path id="Fill-23" d="M59.883 26.822l.9-.643-.707-2.252-1.158-.063-.386-1.223 6.304.257.386 1.415-5.081 3.73-.258-1.221zm1.415-2.83l.45 1.543 2.123-1.48-2.573-.063z"/><path id="Fill-25" d="M6.368 38.721c.193.772 0 1.544-.451 2.188-.449.642-1.093 1.092-1.929 1.221-.836.194-1.544.065-2.251-.386-.644-.386-1.094-1.029-1.286-1.8L0 37.626l5.853-1.22.515 2.314zm-4.76.965c.129.514.386.9.772 1.158.386.257.901.321 1.415.192.514-.127.965-.385 1.222-.77.257-.388.386-.837.257-1.352l-.257-1.158-3.602.772.193 1.158z"/><path id="Fill-27" d="M3.216 47.984l3.28-1.479-4.374-.836-.385-.837 5.402-2.445.451 1.094-3.345 1.48 4.374.835.386.836-5.403 2.445z"/><path id="Fill-29" d="M8.619 53.386c-.45.322-.9.386-1.415.258-.515-.129-.965-.45-1.287-.965-.643-.9-.707-1.8-.128-2.638l1.029.515c-.386.45-.386.965 0 1.48.386.514.836.643 1.222.385.386-.257.386-.707.064-1.222l-.45-.579.837-.579.321.45c.322.451.772.58 1.094.323.385-.258.385-.644.128-1.094-.321-.386-.707-.579-1.222-.45l-.129-1.158c.901-.128 1.673.128 2.251.964.322.451.515.965.451 1.48s-.257.9-.708 1.158c-.45.321-.9.386-1.415.193.129.58-.128 1.093-.643 1.48"/><path id="Fill-31" d="M11.385 58.596l.45-1.029L10.1 55.96l-.965.515-.901-.9 5.596-2.895 1.03 1.03-2.574 5.787-.9-.9zm-.193-3.216l1.158 1.094 1.094-2.315-2.252 1.221z"/><path id="Fill-33" d="M16.852 62.391l1.865-3.087-4.052 1.801-.772-.45 3.087-5.081 1.029.578-1.865 3.088 4.052-1.801.772.45-3.087 5.081z"/><path id="Fill-35" d="M25.278 59.561l1.093.386-1.993 5.596-1.094-.386.836-2.316-2.058-.707-.836 2.316-1.094-.386 1.994-5.597 1.094.387-.772 2.251 2.059.707z"/><path id="Fill-37" d="M34.026 60.72c.836 0 1.48.256 2.058.77.579.58.837 1.222.9 2.06.065.835-.192 1.543-.771 2.122a2.64 2.64 0 01-1.994.9l-2.38.064-.192-5.917h2.379zm.129 4.823c.515 0 .9-.193 1.222-.579.32-.386.45-.836.45-1.35 0-.58-.193-.965-.514-1.288a1.53 1.53 0 00-1.287-.45l-1.222.065.129 3.731 1.222-.129z"/><path id="Fill-39" d="M38.207 65.286c.707-.064.965-.45.707-1.544l-.836-3.408 3.924-.965 1.415 5.788-1.158.258-1.157-4.695-1.673.385.579 2.316c.257 1.029.129 1.736-.194 2.187-.321.449-.771.643-1.35.707l-.257-1.03z"/><path id="Fill-41" d="M47.018 57.117l2.573 5.403-1.029.515-.9-1.865-.58.257-.32 2.444-1.223.579.386-2.573c-.772.064-1.608-.322-1.929-1.093-.258-.515-.258-1.03-.065-1.48.192-.45.515-.901 1.028-1.093l2.06-1.094zm.13 3.088l-.773-1.61-1.093.516a.829.829 0 00-.323 1.158c.194.45.708.643 1.094.45l1.094-.514z"/><path id="Fill-43" d="M53 52.357c.579-.58 1.223-.9 2.059-.9.772 0 1.479.257 2.123.9.579.579.9 1.287.965 2.059.064.77-.258 1.479-.772 2.058l-1.608 1.737-4.31-4.117L53 52.357zm3.474 3.345c.386-.386.514-.772.514-1.286 0-.451-.257-.901-.642-1.287-.387-.386-.837-.58-1.287-.58-.451 0-.901.194-1.222.58l-.836.836 2.7 2.574.773-.837z"/><path id="Fill-45" d="M60.205 51.006l1.351-2.122.964.578-1.994 3.088-5.017-3.216 1.929-3.088.965.579-1.35 2.059 1.093.707 1.222-1.93.965.579-1.222 1.93z"/><path id="Fill-47" d="M62.327 47.662c.386-.644.193-1.093-.836-1.48l-3.28-1.286L59.69 41.1l5.532 2.187-.451 1.094-4.502-1.801-.643 1.608 2.186.836c.965.386 1.544.9 1.673 1.415.128.515.064 1.03-.193 1.544l-.965-.322z"/><path id="Fill-49" d="M66.508 37.113l-1.093.193-.386 2.316 1.029.514-.193 1.222-5.532-3.022.258-1.415 6.239-1.094-.322 1.286zM64 39.107l.257-1.607-2.51.385L64 39.107z"/><path id="Fill-51" d="M3.666 31.003a1.093 1.093 0 10-2.185-.001 1.093 1.093 0 002.185 0"/><path id="Fill-53" d="M64.707 31.067a1.093 1.093 0 10-2.186 0 1.093 1.093 0 002.186 0"/><path id="Fill-55" d="M50.235 40.844c-1.094 1.093-2.638 1.736-4.31 1.736H24.378c-3.474 0-9.97-2.765-9.97-9.969 0-6.818 5.724-9.97 9.777-9.97h3.988c1.415 0 2.315 1.03 2.315 2.315 0 1.286-1.029 2.187-2.315 2.187h-3.795c-1.48 0-5.146 1.351-5.146 5.532s3.666 5.402 5.146 5.402h21.29c1.093 0 1.737-.836 1.737-1.8 0-.836-.579-1.8-1.737-1.8H35.57c-1.158 0-2.315-1.159-2.315-2.317v-7.204c0-1.157 1.158-2.315 2.315-2.315h8.17c1.285 0 2.314.9 2.314 2.186a2.306 2.306 0 01-2.315 2.316h-5.66v3.216h7.846c1.672 0 3.216.708 4.31 1.801a6.134 6.134 0 011.801 4.31c0 1.736-.708 3.28-1.8 4.374"/></g></g></g></g></g></svg>
